X:344
T:Hop Jig
B:Joyce, P. W.; "Old Irish Folk Music and Songs"
R:slip jig
A:Kilkenny
O:Irish
L:1/8
M:9/8
Z:Allan Garvin
K:G
G>AG/F/ GBG AFD|G>AG/F/ GBd cAF|GAG/F/ GBG AFD|=FG/F/E FAd cAG:|
|:B/c/B/A/B cAG FED|GA/G/F GBd cAF|B/c/B/A/B cAG FED|=F/G/FE FAd cAG|
  B/c/B/A/B cAG FED|GA/G/F GBd cAF|B/c/B/A/B cAG FED|=FG/F/E FAd cAG:|
